file/nugget-markets.svg

<svg clip-rule="evenodd" fill-rule="evenodd" stroke-linejoin="round" stroke-miterlimit="1.41421" viewBox="0 0 560 400" xmlns="http://www.w3.org/2000/svg"><path d="m107.889 67.85s-6.818.585-7.703 1c-.881.407-3.574 1.916-3.816 9.287-.233 7.37-.415 12.746-.503 18.122-.029 1.752 0 64.642 0 64.642h-14.871s-31.598-51.939-56.175-80.757v46.581s.022 18.425.833 21.478c.815 3.062.985 5.267 7.013 5.731 6.03.471 6.964.709 6.964.709v6.319h-36.487v-6.319s8.014-.351 9.407-2.389c1.4-2.046 2.474-3.904 2.531-27.956v-49.004s.393-4.499-1.247-5.631c-1.633-1.136-5.859-1.683-10.918-1.815l.011-6.187h33.258s37.064 41.827 50.387 69.088c.125.251.048-49.247-1.251-56.349-.4-2.205-.725-5.024-4.924-5.728-.881-.146-9.055-.879-9.055-.879v-6.258h36.546zm4.317 25.752c.547.859.499 4.825.499 4.825s-.013 25.621 0 26.639c.098 12.763 5.417 17.973 15.691 18.486 10.277.523 20.036-7.379 20.036-7.379l.991 6.108h22.183v-5.29s-.826.034-4.449-.373c-3.492-.395-3.227-4.523-3.227-4.523v-47.53l-1.136-1.137-21.361 3.415v4.676s2.576.504 4.808.791c2.23.301 1.98 3.949 1.98 3.949v25.501c.316 8.785-4.624 12.395-9.548 12.606-10.684.463-10.277-10.225-10.277-10.225l-.1-39.552-1.031-1.134-21.601 3.429v4.74s.796.028 3.463.437c2.667.406 2.534.678 3.079 1.541zm62.25 3.795c4.444-12.808 16.833-15.804 26.855-15.804 10.016 0 16.006 4.027 16.006 4.027l14.976-5.368 1.75 1.857-2.783 9.711-7.438 1.336s6.433 10.351-.418 20.451c-8.252 12.187-28.498 9.401-28.498 9.401s-6.508 1.955-4.646 5.778c1.86 3.827 11.302 4.055 12.907 4.134 27.268 1.339 30.36 5.884 30.36 5.884l-10.536 7.024c-17.039-5.778-28.294 2.376-28.294 2.376-4.542-.825-17.348-4.437-18.899-14.256-1.548-9.807 10.636-13.008 10.636-13.008-14.041-4.13-13.381-19.483-11.978-23.543zm16.833 5.168c0 7.917 4.228 14.345 9.452 14.345 5.211 0 9.445-6.428 9.445-14.345 0-7.939-4.234-14.366-9.445-14.366-5.224 0-9.452 6.427-9.452 14.366zm43.689-5.169c4.44-12.807 16.835-15.803 26.851-15.803 10.014 0 16.005 4.027 16.005 4.027l14.971-5.368 1.756 1.857-2.785 9.711-7.444 1.336s6.442 10.351-.408 20.451c-8.261 12.187-28.503 9.401-28.503 9.401s-6.613 2.058-4.645 5.778c1.963 3.721 10.078 4.099 20.037 5.997 11.56 2.2 21.681 7.845 27.264 13.627h-19.418c-13.718-7.571-28.917-2.582-28.917-2.582s-11.878-2.061-13.423-11.88c-1.55-9.807 10.637-13.008 10.637-13.008-14.049-4.13-13.391-19.483-11.978-23.544zm16.209 5.169c0 7.917 4.234 14.345 9.455 14.345 5.214 0 9.45-6.428 9.45-14.345 0-7.939-4.236-14.366-9.45-14.366-5.221 0-9.455 6.427-9.455 14.366zm42.449 10.728c0-27.878 22.611-29.837 26.948-29.837 4.347 0 11.783.618 17.763 5.569 5.993 4.966 7.234 13.222 7.334 18.699.104 5.469-5.059 5.267-5.059 5.267h-30.055c-.926 1.337.626 21.993 13.634 21.792 13.015-.215 15.911-11.362 15.911-11.362l4.745 2.891c-6.766 18.588-20.656 17.556-25.306 17.455-5.258-.12-25.915-2.585-25.915-30.474zm16.931-6.606h15.807s1.699.26 2.166-.72c.465-.982.924-4.289-.051-8.312-.977-4.032-2.887-7.798-7.435-8.163-.872-.068-9.657-.407-10.487 17.195zm46.06 21.998s-.722 14.926 13.583 14.926c3.252 0 10.48-1.244 17.303-6.199l-1.451-4.135s-6.81 2.845-10.427.363c-3.617-2.474-3.201-8.88-3.201-8.88v-33.302h12.287v-6.585h-12.287v-14.433h-6.46s-2.631 14.507-16.318 14.507v6.51h6.971zm-184.744 41.57h5.226l-2.551-5.756zm225.2-3.561v3.609c0 8.219-6.652 14.871-14.861 14.871h-261.07c-8.222 0-14.877-6.652-14.877-14.871v-3.609c0-8.212 6.655-14.868 14.877-14.868h261.07c8.209 0 14.861 6.656 14.861 14.868zm-253.875-6.357h-5.787v.406c.42.124.599.277.599.62 0 .187-.089.373-.213.589l-4.469 8.588-4.2-8.588c-.088-.216-.212-.37-.212-.563 0-.369.182-.579.574-.646v-.405h-5.945v.405c.605.124.75.307.75.902v13.712c0 .592-.145.744-.75.901v.399h4.504v-.399c-.631-.157-.721-.309-.721-.901v-10.44l5.794 11.622 6.089-11.622v10.44c0 .592-.154.779-.747.901v.399h4.734v-.399c-.594-.122-.744-.309-.744-.901v-13.712c0-.595.15-.753.744-.902zm41.069 15.921c-.721-.187-1.056-.719-1.472-1.578l-6.03-12.695c-.087-.218-.151-.403-.151-.565 0-.337.205-.491.751-.677v-.406h-5.339v.406c.535.148.844.397.844.775 0 .151-.067.281-.155.467l-5.85 12.695c-.33.741-.508 1.329-1.413 1.578v.399h4.892v-.399c-.536-.187-.752-.377-.752-.719 0-.157.062-.337.154-.56l1.078-2.513h7.233l1.142 2.513c.089.224.151.403.151.56 0 .342-.218.532-.757.719v.399h5.674zm39.646 0c-.782-.434-1.348-.776-1.865-1.558l-3.265-4.818c2.849-.806 4.229-2.362 4.229-4.818 0-2.895-2.249-4.726-6.48-4.726h-9.901v.405c.6.148.749.307.749.902v13.712c0 .592-.149.779-.749.901v.399h4.944v-.399c-.626-.157-.746-.309-.746-.901v-5.38h4.265l3.326 5.002c.21.314.363.72.363.752 0 .278-.239.467-.668.527v.399h5.798zm40.603-.186c-.875-.472-1.475-.969-1.955-1.551l-6.209-7.597 5.187-4.317c.3-.249 1.081-.939 2.639-1.865v-.405h-6.625v.405c.446.092.69.309.69.526 0 .314-.217.467-.513.718l-6.331 5.254v-5.596c0-.593.154-.777.754-.902v-.405h-4.952v.405c.602.125.748.309.748.902v13.713c0 .592-.146.744-.748.901v.398h4.952v-.398c-.633-.157-.754-.309-.754-.901v-4.39l2.404-1.923 4.707 5.75c.237.309.453.499.453.724 0 .273-.241.492-.67.554v.405h6.223zm38.151-3.08h-.385c-.152.691-.305.75-.881.75h-10.107v-4.262h6.332c.568 0 .754.12.868.75h.397v-4.144h-.397c-.146.686-.3.75-.868.75h-6.332v-3.61h9.929c.574 0 .754.157.875.781h.388v-4.451h-.388c-.148.691-.301.782-.875.782h-14.126v.405c.594.124.748.307.748.902v13.711c0 .593-.154.745-.748.902v.399h14.304c.576 0 .754.159.881.782h.385zm38.621-13.435h-.388c-.148.69-.301.781-.876.781h-13.199c-.571 0-.748-.159-.863-.781h-.397v4.415h.397c.146-.652.291-.746.863-.746h4.861v12.13c0 .592-.152.745-.748.902v.399h4.92v-.399c-.631-.157-.722-.31-.722-.902v-12.13h4.888c.575 0 .754.158.876.781h.388zm38.509 11.973c0-2.61-2.012-4.351-5.846-4.848-3.846-.495-6.179.031-6.179-1.765 0-1.131 1.374-2.032 3.834-2.032 2.907 0 5.552 1.532 5.552 2.365 0 .063 0 .095-.032.159l.511.28 1.916-3.858-.358-.187c-.236.187-.421.309-.575.309-.587 0-3.143-1.841-6.926-1.841-4.505 0-7.322 2.245-7.322 5.383 0 2.708 1.867 4.169 5.617 4.509 3.59.343 6.242-.123 6.242 1.871 0 1.211-1.623 2.204-4.18 2.204-3.035 0-5.883-1.367-5.883-2.049 0-.094.034-.184.071-.312l-.487-.221-1.679 3.884.486.158c.082-.247.178-.336.383-.336.519 0 2.581 1.739 6.99 1.739 4.799 0 7.865-2.421 7.865-5.412zm-160.121-6.216c0-1.745-1.315-2.176-4.108-2.176h-4.739v4.471h4.861c2.703 0 3.986-.558 3.986-2.295zm41.832 63.232c-20.534 0-37.18-17.902-37.18-38.436h-15.373c1.831 27.219 24.657 48.355 52.553 48.355 27.894 0 50.723-21.133 52.55-48.355h-15.187c0 20.534-16.835 38.436-37.363 38.436zm-49.983.828c-20.533 0-37.562-18.729-37.562-39.264h-14.991c1.831 27.22 24.655 48.355 52.553 48.355 7.608 0 14.841-1.604 21.372-4.48l-9.615-6.505c-3.698 1.231-7.652 1.894-11.757 1.894z" fill="#6b702e" fill-rule="nonzero" transform="matrix(.91332 0 0 .91332 97.336 63.002)"/></svg>

<?xml version="1.0" encoding="UTF-8" standalone="no"?>
<!DOCTYPE svg PUBLIC "-//W3C//DTD SVG 1.1//EN" "http://www.w3.org/Graphics/SVG/1.1/DTD/svg11.dtd">
<svg width="100%" height="100%" viewBox="0 0 560 400" version="1.1" xmlns="http://www.w3.org/2000/svg" xmlns:xlink="http://www.w3.org/1999/xlink" xml:space="preserve" xmlns:serif="http://www.serif.com/" style="fill-rule:evenodd;clip-rule:evenodd;stroke-linejoin:round;stroke-miterlimit:1.41421;">
    <g id="logo_1_" transform="matrix(0.91332,0,0,0.91332,97.336,63.002)">
        <path d="M107.889,67.85C107.889,67.85 101.071,68.435 100.186,68.85C99.305,69.257 96.612,70.766 96.37,78.137C96.137,85.507 95.955,90.883 95.867,96.259C95.838,98.011 95.867,160.901 95.867,160.901L80.996,160.901C80.996,160.901 49.398,108.962 24.821,80.144L24.821,126.725C24.821,126.725 24.843,145.15 25.654,148.203C26.469,151.265 26.639,153.47 32.667,153.934C38.697,154.405 39.631,154.643 39.631,154.643L39.631,160.962L3.144,160.962L3.144,154.643C3.144,154.643 11.158,154.292 12.551,152.254C13.951,150.208 15.025,148.35 15.082,124.298L15.082,75.294C15.082,75.294 15.475,70.795 13.835,69.663C12.202,68.527 7.976,67.98 2.917,67.848L2.928,61.661L36.186,61.661C36.186,61.661 73.25,103.488 86.573,130.749C86.698,131 86.621,81.502 85.322,74.4C84.922,72.195 84.597,69.376 80.398,68.672C79.517,68.526 71.343,67.793 71.343,67.793L71.343,61.535L107.889,61.535L107.889,67.85L107.889,67.85ZM112.206,93.602C112.753,94.461 112.705,98.427 112.705,98.427C112.705,98.427 112.692,124.048 112.705,125.066C112.803,137.829 118.122,143.039 128.396,143.552C138.673,144.075 148.432,136.173 148.432,136.173L149.423,142.281L171.606,142.281L171.606,136.991C171.606,136.991 170.78,137.025 167.157,136.618C163.665,136.223 163.93,132.095 163.93,132.095L163.93,84.565L162.794,83.428L141.433,86.843L141.433,91.519C141.433,91.519 144.009,92.023 146.241,92.31C148.471,92.611 148.221,96.259 148.221,96.259L148.221,121.76C148.537,130.545 143.597,134.155 138.673,134.366C127.989,134.829 128.396,124.141 128.396,124.141L128.296,84.589L127.265,83.455L105.664,86.884L105.664,91.624C105.664,91.624 106.46,91.652 109.127,92.061C111.794,92.467 111.661,92.739 112.206,93.602ZM174.456,97.397C178.9,84.589 191.289,81.593 201.311,81.593C211.327,81.593 217.317,85.62 217.317,85.62L232.293,80.252L234.043,82.109L231.26,91.82L223.822,93.156C223.822,93.156 230.255,103.507 223.404,113.607C215.152,125.794 194.906,123.008 194.906,123.008C194.906,123.008 188.398,124.963 190.26,128.786C192.12,132.613 201.562,132.841 203.167,132.92C230.435,134.259 233.527,138.804 233.527,138.804L222.991,145.828C205.952,140.05 194.697,148.204 194.697,148.204C190.155,147.379 177.349,143.767 175.798,133.948C174.25,124.141 186.434,120.94 186.434,120.94C172.393,116.81 173.053,101.457 174.456,97.397ZM191.289,102.565C191.289,110.482 195.517,116.91 200.741,116.91C205.952,116.91 210.186,110.482 210.186,102.565C210.186,94.626 205.952,88.199 200.741,88.199C195.517,88.199 191.289,94.626 191.289,102.565ZM234.978,97.396C239.418,84.589 251.813,81.593 261.829,81.593C271.843,81.593 277.834,85.62 277.834,85.62L292.805,80.252L294.561,82.109L291.776,91.82L284.332,93.156C284.332,93.156 290.774,103.507 283.924,113.607C275.663,125.794 255.421,123.008 255.421,123.008C255.421,123.008 248.808,125.066 250.776,128.786C252.739,132.507 260.854,132.885 270.813,134.783C282.373,136.983 292.494,142.628 298.077,148.41L278.659,148.41C264.941,140.839 249.742,145.828 249.742,145.828C249.742,145.828 237.864,143.767 236.319,133.948C234.769,124.141 246.956,120.94 246.956,120.94C232.907,116.81 233.565,101.457 234.978,97.396ZM251.187,102.565C251.187,110.482 255.421,116.91 260.642,116.91C265.856,116.91 270.092,110.482 270.092,102.565C270.092,94.626 265.856,88.199 260.642,88.199C255.421,88.199 251.187,94.626 251.187,102.565ZM293.636,113.293C293.636,85.415 316.247,83.456 320.584,83.456C324.931,83.456 332.367,84.074 338.347,89.025C344.34,93.991 345.581,102.247 345.681,107.724C345.785,113.193 340.622,112.991 340.622,112.991L310.567,112.991C309.641,114.328 311.193,134.984 324.201,134.783C337.216,134.568 340.112,123.421 340.112,123.421L344.857,126.312C338.091,144.9 324.201,143.868 319.551,143.767C314.293,143.647 293.636,141.182 293.636,113.293ZM310.567,106.687L326.374,106.687C326.374,106.687 328.073,106.947 328.54,105.967C329.005,104.985 329.464,101.678 328.489,97.655C327.512,93.623 325.602,89.857 321.054,89.492C320.182,89.424 311.397,89.085 310.567,106.687L310.567,106.687L310.567,106.687ZM356.627,128.685C356.627,128.685 355.905,143.611 370.21,143.611C373.462,143.611 380.69,142.367 387.513,137.412L386.062,133.277C386.062,133.277 379.252,136.122 375.635,133.64C372.018,131.166 372.434,124.76 372.434,124.76L372.434,91.458L384.721,91.458L384.721,84.873L372.434,84.873L372.434,70.44L365.974,70.44C365.974,70.44 363.343,84.947 349.656,84.947L349.656,91.457L356.627,91.457L356.627,128.685ZM171.883,170.255L177.109,170.255L174.558,164.499L171.883,170.255ZM397.083,166.694L397.083,170.303C397.083,178.522 390.431,185.174 382.222,185.174L121.152,185.174C112.93,185.174 106.275,178.522 106.275,170.303L106.275,166.694C106.275,158.482 112.93,151.826 121.152,151.826L382.222,151.826C390.431,151.826 397.083,158.482 397.083,166.694ZM143.208,160.337L137.421,160.337L137.421,160.743C137.841,160.867 138.02,161.02 138.02,161.363C138.02,161.55 137.931,161.736 137.807,161.952L133.338,170.54L129.138,161.952C129.05,161.736 128.926,161.582 128.926,161.389C128.926,161.02 129.108,160.81 129.5,160.743L129.5,160.338L123.555,160.338L123.555,160.743C124.16,160.867 124.305,161.05 124.305,161.645L124.305,175.357C124.305,175.949 124.16,176.101 123.555,176.258L123.555,176.657L128.059,176.657L128.059,176.258C127.428,176.101 127.338,175.949 127.338,175.357L127.338,164.917L133.132,176.539L139.221,164.917L139.221,175.357C139.221,175.949 139.067,176.136 138.474,176.258L138.474,176.657L143.208,176.657L143.208,176.258C142.614,176.136 142.464,175.949 142.464,175.357L142.464,161.645C142.464,161.05 142.614,160.892 143.208,160.743L143.208,160.337L143.208,160.337ZM184.277,176.258C183.556,176.071 183.221,175.539 182.805,174.68L176.775,161.985C176.688,161.767 176.624,161.582 176.624,161.42C176.624,161.083 176.829,160.929 177.375,160.743L177.375,160.337L172.036,160.337L172.036,160.743C172.571,160.891 172.88,161.14 172.88,161.518C172.88,161.669 172.813,161.799 172.725,161.985L166.875,174.68C166.545,175.421 166.367,176.009 165.462,176.258L165.462,176.657L170.354,176.657L170.354,176.258C169.818,176.071 169.602,175.881 169.602,175.539C169.602,175.382 169.664,175.202 169.756,174.979L170.834,172.466L178.067,172.466L179.209,174.979C179.298,175.203 179.36,175.382 179.36,175.539C179.36,175.881 179.142,176.071 178.603,176.258L178.603,176.657L184.277,176.657L184.277,176.258L184.277,176.258ZM223.923,176.258C223.141,175.824 222.575,175.482 222.058,174.7L218.793,169.882C221.642,169.076 223.022,167.52 223.022,165.064C223.022,162.169 220.773,160.338 216.542,160.338L206.641,160.338L206.641,160.743C207.241,160.891 207.39,161.05 207.39,161.645L207.39,175.357C207.39,175.949 207.241,176.136 206.641,176.258L206.641,176.657L211.585,176.657L211.585,176.258C210.959,176.101 210.839,175.949 210.839,175.357L210.839,169.977L215.104,169.977L218.43,174.979C218.64,175.293 218.793,175.699 218.793,175.731C218.793,176.009 218.554,176.198 218.125,176.258L218.125,176.657L223.923,176.657L223.923,176.258ZM264.526,176.072C263.651,175.6 263.051,175.103 262.571,174.521L256.362,166.924L261.549,162.607C261.849,162.358 262.63,161.668 264.188,160.742L264.188,160.337L257.563,160.337L257.563,160.742C258.009,160.834 258.253,161.051 258.253,161.268C258.253,161.582 258.036,161.735 257.74,161.986L251.409,167.24L251.409,161.644C251.409,161.051 251.563,160.867 252.163,160.742L252.163,160.337L247.211,160.337L247.211,160.742C247.813,160.867 247.959,161.051 247.959,161.644L247.959,175.357C247.959,175.949 247.813,176.101 247.211,176.258L247.211,176.656L252.163,176.656L252.163,176.258C251.53,176.101 251.409,175.949 251.409,175.357L251.409,170.967L253.813,169.044L258.52,174.794C258.757,175.103 258.973,175.293 258.973,175.518C258.973,175.791 258.732,176.01 258.303,176.072L258.303,176.477L264.526,176.477L264.526,176.072ZM302.677,172.992L302.292,172.992C302.14,173.683 301.987,173.742 301.411,173.742L301.411,173.742L291.304,173.742L291.304,169.48L297.636,169.48C298.204,169.48 298.39,169.6 298.504,170.23L298.901,170.23L298.901,166.086L298.504,166.086C298.358,166.772 298.204,166.836 297.636,166.836L291.304,166.836L291.304,163.226L301.233,163.226C301.807,163.226 301.987,163.383 302.108,164.007L302.496,164.007L302.496,159.556L302.108,159.556C301.96,160.247 301.807,160.338 301.233,160.338L287.107,160.338L287.107,160.743C287.701,160.867 287.855,161.05 287.855,161.645L287.855,175.356C287.855,175.949 287.701,176.101 287.107,176.258L287.107,176.657L301.411,176.657C301.987,176.657 302.165,176.816 302.292,177.439L302.677,177.439L302.677,172.992ZM341.298,159.557L340.91,159.557C340.762,160.247 340.609,160.338 340.034,160.338L326.835,160.338C326.264,160.338 326.087,160.179 325.972,159.557L325.575,159.557L325.575,163.972L325.972,163.972C326.118,163.32 326.263,163.226 326.835,163.226L326.835,163.226L331.696,163.226L331.696,175.356C331.696,175.948 331.544,176.101 330.948,176.258L330.948,176.657L335.868,176.657L335.868,176.258C335.237,176.101 335.146,175.948 335.146,175.356L335.146,163.226L340.034,163.226C340.609,163.226 340.788,163.384 340.91,164.007L341.298,164.007L341.298,159.557ZM379.807,171.53C379.807,168.92 377.795,167.179 373.961,166.682C370.115,166.187 367.782,166.713 367.782,164.917C367.782,163.786 369.156,162.885 371.616,162.885C374.523,162.885 377.168,164.417 377.168,165.25C377.168,165.313 377.168,165.345 377.136,165.409L377.647,165.689L379.563,161.831L379.205,161.644C378.969,161.831 378.784,161.953 378.63,161.953C378.043,161.953 375.487,160.112 371.704,160.112C367.199,160.112 364.382,162.357 364.382,165.495C364.382,168.203 366.249,169.664 369.999,170.004C373.589,170.347 376.241,169.881 376.241,171.875C376.241,173.086 374.618,174.079 372.061,174.079C369.026,174.079 366.178,172.712 366.178,172.03C366.178,171.936 366.212,171.846 366.249,171.718L365.762,171.497L364.083,175.381L364.569,175.539C364.651,175.292 364.747,175.203 364.952,175.203C365.471,175.203 367.533,176.942 371.942,176.942C376.741,176.942 379.807,174.521 379.807,171.53ZM219.686,165.314C219.686,163.569 218.371,163.138 215.578,163.138L210.839,163.138L210.839,167.609L215.7,167.609C218.403,167.609 219.686,167.051 219.686,165.314ZM261.518,228.546C240.984,228.546 224.338,210.644 224.338,190.11L208.965,190.11C210.796,217.329 233.622,238.465 261.518,238.465C289.412,238.465 312.241,217.332 314.068,190.11L298.881,190.11C298.881,210.644 282.046,228.546 261.518,228.546ZM211.535,229.374C191.002,229.374 173.973,210.645 173.973,190.11L158.982,190.11C160.813,217.33 183.637,238.465 211.535,238.465C219.143,238.465 226.376,236.861 232.907,233.985L223.292,227.48C219.594,228.711 215.64,229.374 211.535,229.374Z" style="fill:rgb(107,112,46);fill-rule:nonzero;"/>
    </g>
</svg>
